files/resources/svgs/general/m-identification.svg

<svg width="20" height="20" viewBox="0 0 20 20" fill="none" xmlns="http://www.w3.org/2000/svg">
<path fill-rule="evenodd" clip-rule="evenodd" d="M1 6C1 4.34315 2.34315 3 4 3H16C17.6569 3 19 4.34315 19 6V14C19 15.6569 17.6569 17 16 17H4C2.34315 17 1 15.6569 1 14V6ZM5 7.5C5 6.39543 5.89543 5.5 7 5.5C8.10457 5.5 9 6.39543 9 7.5C9 8.60457 8.10457 9.5 7 9.5C5.89543 9.5 5 8.60457 5 7.5ZM6.99987 10.5C5.36027 10.5 3.95272 11.4864 3.3351 12.895C3.25293 13.0824 3.2509 13.2952 3.32946 13.4842C3.40802 13.6731 3.56036 13.8217 3.75117 13.8956C4.75988 14.2862 5.85579 14.5 6.99987 14.5C8.14395 14.5 9.23987 14.2862 10.2486 13.8956C10.4394 13.8217 10.5917 13.6731 10.6703 13.4842C10.7488 13.2952 10.7468 13.0824 10.6647 12.895C10.047 11.4864 8.63947 10.5 6.99987 10.5ZM12 6.75C12 6.33579 12.3358 6 12.75 6H15.25C15.6642 6 16 6.33579 16 6.75C16 7.16421 15.6642 7.5 15.25 7.5H12.75C12.3358 7.5 12 7.16421 12 6.75ZM12 13.25C12 12.8358 12.3358 12.5 12.75 12.5H15.25C15.6642 12.5 16 12.8358 16 13.25C16 13.6642 15.6642 14 15.25 14H12.75C12.3358 14 12 13.6642 12 13.25ZM12.75 9.25C12.3358 9.25 12 9.58579 12 10C12 10.4142 12.3358 10.75 12.75 10.75L15.25 10.75C15.6642 10.75 16 10.4142 16 10C16 9.58579 15.6642 9.25 15.25 9.25L12.75 9.25Z" fill="#0F172A"/>
</svg>

<svg xmlns="http://www.w3.org/2000/svg" viewBox="0 0 20 20" fill="currentColor" aria-hidden="true">
  <path fill-rule="evenodd" d="M1 6a3 3 0 013-3h12a3 3 0 013 3v8a3 3 0 01-3 3H4a3 3 0 01-3-3V6zm4 1.5a2 2 0 114 0 2 2 0 01-4 0zm2 3a4 4 0 00-3.665 2.395.75.75 0 00.416 1A8.98 8.98 0 007 14.5a8.98 8.98 0 003.249-.604.75.75 0 00.416-1.001A4.001 4.001 0 007 10.5zm5-3.75a.75.75 0 01.75-.75h2.5a.75.75 0 010 1.5h-2.5a.75.75 0 01-.75-.75zm0 6.5a.75.75 0 01.75-.75h2.5a.75.75 0 010 1.5h-2.5a.75.75 0 01-.75-.75zm.75-4a.75.75 0 000 1.5h2.5a.75.75 0 000-1.5h-2.5z" clip-rule="evenodd"/>
</svg>
